svg/regular/bx-shield-x.svg

<svg xmlns="http://www.w3.org/2000/svg" width="24" height="24"><path d="m20.48 6.105-8-4a1 1 0 0 0-.895 0l-8 4a1.002 1.002 0 0 0-.547.795c-.011.107-.961 10.767 8.589 15.014a.99.99 0 0 0 .812 0c9.55-4.247 8.6-14.906 8.589-15.014a1.001 1.001 0 0 0-.548-.795zm-8.447 13.792C5.265 16.625 4.944 9.642 4.999 7.635l7.034-3.517 7.029 3.515c.038 1.989-.328 9.018-7.029 12.264z"/><path d="M14.293 8.293 12 10.586 9.707 8.293 8.293 9.707 10.586 12l-2.293 2.293 1.414 1.414L12 13.414l2.293 2.293 1.414-1.414L13.414 12l2.293-2.293z"/></svg>

<svg xmlns="http://www.w3.org/2000/svg" width="24" height="24" viewBox="0 0 24 24"><path d="M20.48,6.105l-8-4c-0.281-0.141-0.613-0.141-0.895,0l-8,4C3.279,6.259,3.072,6.559,3.038,6.9 c-0.011,0.107-0.961,10.767,8.589,15.014C11.756,21.972,11.895,22,12.033,22s0.277-0.028,0.406-0.086 c9.55-4.247,8.6-14.906,8.589-15.014C20.994,6.559,20.787,6.259,20.48,6.105z M12.033,19.897C5.265,16.625,4.944,9.642,4.999,7.635 l7.034-3.517l7.029,3.515C19.1,9.622,18.734,16.651,12.033,19.897z"/><path d="M14.293 8.293L12 10.586 9.707 8.293 8.293 9.707 10.586 12 8.293 14.293 9.707 15.707 12 13.414 14.293 15.707 15.707 14.293 13.414 12 15.707 9.707z"/></svg>
